X:1
T:Title
%%score 1 2
L:1/8
Q:1/4=90
M:4/4
K:Ab
V:1 treble nm="Strings 1, Soprano"
V:2 bass nm="Strings 1, Bass"
V:1
 z4 z2 [CA]>[DB] | [Ec]2 [Ec]2 [Ec]2 [EA]>[EA] | [DB]2 [DA]2 [CE]2 [EA]>[EB] | %3
w: 1.~In~ that~|land~ of~ rest~ with~ its~|joys~ un told~ Is~ the~|
 [Ec]2 [Ec]2 [EB]2 [=DA]2 | [EB]6 [CA]>[DB] | [Ec]2 [Ec]2 [Ec]2 [EA]>[EA] | %6
w: Book~ of~ Life~ so~|fair;~ On~ its~|pag es~ bright~ is~ my~|
 [DB]2 [DA]2 [CE]2 [EA]>[FB] | [Ec]2 [Ec]2 [DB]2 [DB]2 | [CA]6 [Ec]>[Ed] | %9
w: name~ en rolled?~ It~ is~|in~ the~ Fa ther's~|care.~ * *|
 [Ae]3- [Ae]/[Ed]/ [Ec]2 [_Ge]2 | [Fe]2 [Fd]4 [GB]>[Ac] | [Bd]3- [Bd]/[Ac]/ [GB]2 [Bd]2 | %12
w: |||
 [Bd]2 [Ac]4 [Ec]>[Ed] | [Ee]3- [Ee]/[Ec]/ [EA]2 [_Ge]2 | [Fe]2 [Fd]4 [=DF]>[DG] | %15
w: |||
 [EA]3 [FB] [Ec]2 [DB]2 | [CA]6 z2 |] %17
w: ||
V:2
 z4 z2 [A,,A,]>[A,,A,] | [A,,A,]2 [A,,A,]2 [A,,A,]2 [C,A,]>[C,A,] | %2
 [D,F,]2 [F,A,]2 A,2 [C,A,]>[E,G,] | A,2 A,2 [G,B,]2 [F,B,]2 | [E,G,]6 [A,,A,]>[A,,A,] | %5
 [A,,A,]2 [A,,A,]2 [A,,A,]2 [C,A,]>[C,A,] | [D,F,]2 [F,A,]2 A,2 [C,A,]>[D,A,] | %7
 [E,A,]2 [E,A,]2 [E,G,]2 [E,G,]2 | [A,,A,]6 z2 | [A,C]>[A,C] [A,C]>[A,B,] A,2 [C,A,]2 | %10
 [D,A,]2 [D,A,]4 z2 | [E,E]>[E,E] [E,E]>[E,E] [E,E]2 [G,E]2 | [A,E]2 [A,E]4 A,>[A,B,] | %13
 [A,C]3- [A,C]/A,/ [A,C]2 [C,A,]2 | [D,A,]2 [D,A,]4 [B,,B,]>[B,,B,] | %15
 [C,A,]3 [D,A,] [E,A,]2 [E,G,]2 | [A,,E,A,]6 z2 |] %17

